images/440707.svg

<?xml version="1.0" encoding="UTF-8"?>
<svg xmlns="http://www.w3.org/2000/svg" xmlns:xlink="http://www.w3.org/1999/xlink" width="300pt" height="300pt" viewBox="0 0 300 300" version="1.1">
<defs>
<g>
<symbol overflow="visible" id="glyph0-0">
<path style="stroke:none;" d="M 0.453125 1.59375 L 0.453125 -6.34375 L 4.953125 -6.34375 L 4.953125 1.59375 Z M 0.953125 1.09375 L 4.453125 1.09375 L 4.453125 -5.84375 L 0.953125 -5.84375 Z M 0.953125 1.09375 "/>
</symbol>
<symbol overflow="visible" id="glyph0-1">
<path style="stroke:none;" d="M 3.546875 -5.953125 C 2.898438 -5.953125 2.382812 -5.710938 2 -5.234375 C 1.625 -4.753906 1.4375 -4.101562 1.4375 -3.28125 C 1.4375 -2.445312 1.625 -1.789062 2 -1.3125 C 2.382812 -0.832031 2.898438 -0.59375 3.546875 -0.59375 C 4.191406 -0.59375 4.703125 -0.832031 5.078125 -1.3125 C 5.453125 -1.789062 5.640625 -2.445312 5.640625 -3.28125 C 5.640625 -4.101562 5.453125 -4.753906 5.078125 -5.234375 C 4.703125 -5.710938 4.191406 -5.953125 3.546875 -5.953125 Z M 3.546875 -6.6875 C 4.460938 -6.6875 5.195312 -6.375 5.75 -5.75 C 6.300781 -5.132812 6.578125 -4.3125 6.578125 -3.28125 C 6.578125 -2.238281 6.300781 -1.410156 5.75 -0.796875 C 5.195312 -0.179688 4.460938 0.125 3.546875 0.125 C 2.617188 0.125 1.878906 -0.179688 1.328125 -0.796875 C 0.773438 -1.410156 0.5 -2.238281 0.5 -3.28125 C 0.5 -4.3125 0.773438 -5.132812 1.328125 -5.75 C 1.878906 -6.375 2.617188 -6.6875 3.546875 -6.6875 Z M 3.546875 -6.6875 "/>
</symbol>
<symbol overflow="visible" id="glyph0-2">
<path style="stroke:none;" d="M 0.890625 -6.5625 L 1.765625 -6.5625 L 1.765625 -3.875 L 5 -3.875 L 5 -6.5625 L 5.890625 -6.5625 L 5.890625 0 L 5 0 L 5 -3.125 L 1.765625 -3.125 L 1.765625 0 L 0.890625 0 Z M 0.890625 -6.5625 "/>
</symbol>
</g>
</defs>
<g id="surface42021">
<rect x="0" y="0" width="300" height="300" style="fill:rgb(100%,100%,100%);fill-opacity:1;stroke:none;"/>
<path style=" stroke:none;fill-rule:nonzero;fill:rgb(0%,0%,0%);fill-opacity:1;" d="M 192.441406 158.636719 L 177.460938 178.019531 L 185 181.976562 Z M 192.441406 158.636719 "/>
<path style="fill:none;stroke-width:1.2;stroke-linecap:butt;stroke-linejoin:miter;stroke:rgb(0%,0%,0%);stroke-opacity:1;stroke-miterlimit:10;" d="M 192.441406 158.636719 L 205.335938 179.023438 "/>
<path style="fill:none;stroke-width:1.2;stroke-linecap:butt;stroke-linejoin:miter;stroke:rgb(0%,0%,0%);stroke-opacity:1;stroke-miterlimit:10;" d="M 203.648438 137.277344 L 192.441406 158.636719 "/>
<path style="fill:none;stroke-width:1.2;stroke-linecap:butt;stroke-linejoin:miter;stroke:rgb(0%,0%,0%);stroke-opacity:1;stroke-miterlimit:10;" d="M 168.335938 159.609375 L 192.441406 158.636719 "/>
<path style="fill:none;stroke-width:1.2;stroke-linecap:butt;stroke-linejoin:miter;stroke:rgb(0%,0%,0%);stroke-opacity:1;stroke-miterlimit:10;" d="M 205.335938 179.023438 L 229.4375 178.050781 "/>
<path style="fill:none;stroke-width:1.2;stroke-linecap:butt;stroke-linejoin:miter;stroke:rgb(0%,0%,0%);stroke-opacity:1;stroke-miterlimit:10;" d="M 229.4375 178.050781 L 240.648438 156.6875 "/>
<path style="fill:none;stroke-width:1.2;stroke-linecap:butt;stroke-linejoin:miter;stroke:rgb(0%,0%,0%);stroke-opacity:1;stroke-miterlimit:10;" d="M 240.761719 159.523438 L 252.8125 159.039062 "/>
<path style="fill:none;stroke-width:1.2;stroke-linecap:butt;stroke-linejoin:miter;stroke:rgb(100%,0%,0%);stroke-opacity:1;stroke-miterlimit:10;" d="M 252.8125 159.039062 L 264.863281 158.550781 "/>
<path style="fill:none;stroke-width:1.2;stroke-linecap:butt;stroke-linejoin:miter;stroke:rgb(0%,0%,0%);stroke-opacity:1;stroke-miterlimit:10;" d="M 240.53125 153.851562 L 252.582031 153.367188 "/>
<path style="fill:none;stroke-width:1.2;stroke-linecap:butt;stroke-linejoin:miter;stroke:rgb(100%,0%,0%);stroke-opacity:1;stroke-miterlimit:10;" d="M 252.582031 153.367188 L 264.636719 152.878906 "/>
<path style="fill:none;stroke-width:1.2;stroke-linecap:butt;stroke-linejoin:miter;stroke:rgb(0%,0%,0%);stroke-opacity:1;stroke-miterlimit:10;" d="M 240.648438 156.6875 L 227.75 136.300781 "/>
<path style=" stroke:none;fill-rule:nonzero;fill:rgb(100%,100%,100%);fill-opacity:1;" d="M 260.75 150.214844 L 268.75 150.214844 L 268.75 161.214844 L 260.75 161.214844 Z M 260.75 150.214844 "/>
<g style="fill:rgb(100%,0%,0%);fill-opacity:1;">
  <use xlink:href="#glyph0-1" x="260.75" y="158.87793"/>
</g>
<path style="fill:none;stroke-width:1.2;stroke-linecap:butt;stroke-linejoin:miter;stroke:rgb(0%,0%,0%);stroke-opacity:1;stroke-miterlimit:10;" d="M 227.75 136.300781 L 203.648438 137.277344 "/>
<path style="fill:none;stroke-width:1.2;stroke-linecap:butt;stroke-linejoin:miter;stroke:rgb(0%,0%,0%);stroke-opacity:1;stroke-miterlimit:10;" d="M 225.570312 142.070312 L 206.289062 142.847656 "/>
<path style="fill:none;stroke-width:1.2;stroke-linecap:butt;stroke-linejoin:miter;stroke:rgb(0%,0%,0%);stroke-opacity:1;stroke-miterlimit:10;" d="M 203.648438 137.277344 L 190.753906 116.886719 "/>
<path style="fill:none;stroke-width:1.2;stroke-linecap:butt;stroke-linejoin:miter;stroke:rgb(0%,0%,0%);stroke-opacity:1;stroke-miterlimit:10;" d="M 190.753906 116.886719 L 166.648438 117.863281 "/>
<path style="fill:none;stroke-width:1;stroke-linecap:butt;stroke-linejoin:miter;stroke:rgb(0%,0%,0%);stroke-opacity:1;stroke-miterlimit:10;" d="M 155.441406 139.222656 L 155.441406 139.222656 M 157.277344 136.847656 L 156.351562 136.363281 M 159.109375 134.476562 L 157.265625 133.507812 M 160.945312 132.101562 L 158.175781 130.648438 M 162.78125 129.726562 L 159.085938 127.789062 M 164.613281 127.355469 L 159.996094 124.929688 M 166.449219 124.980469 L 160.90625 122.074219 M 168.28125 122.605469 L 161.820312 119.214844 M 170.117188 120.230469 L 162.730469 116.355469 M 170.417969 119.839844 L 162.878906 115.882812 "/>
<path style="fill:none;stroke-width:1.2;stroke-linecap:butt;stroke-linejoin:miter;stroke:rgb(0%,0%,0%);stroke-opacity:1;stroke-miterlimit:10;" d="M 155.441406 139.222656 L 168.335938 159.609375 "/>
<path style="fill:none;stroke-width:1.2;stroke-linecap:butt;stroke-linejoin:miter;stroke:rgb(0%,0%,0%);stroke-opacity:1;stroke-miterlimit:10;" d="M 131.339844 140.195312 L 155.441406 139.222656 "/>
<path style=" stroke:none;fill-rule:nonzero;fill:rgb(0%,0%,0%);fill-opacity:1;" d="M 168.335938 159.609375 L 153.359375 178.992188 L 160.898438 182.949219 Z M 168.335938 159.609375 "/>
<path style="fill:none;stroke-width:1.2;stroke-linecap:butt;stroke-linejoin:miter;stroke:rgb(0%,0%,0%);stroke-opacity:1;stroke-miterlimit:10;" d="M 157.128906 180.972656 L 133.027344 181.945312 "/>
<path style="fill:none;stroke-width:1.2;stroke-linecap:butt;stroke-linejoin:miter;stroke:rgb(0%,0%,0%);stroke-opacity:1;stroke-miterlimit:10;" d="M 133.027344 181.945312 L 120.128906 161.558594 "/>
<path style="fill:none;stroke-width:1.2;stroke-linecap:butt;stroke-linejoin:miter;stroke:rgb(0%,0%,0%);stroke-opacity:1;stroke-miterlimit:10;" d="M 120.128906 161.558594 L 131.339844 140.195312 "/>
<path style=" stroke:none;fill-rule:nonzero;fill:rgb(0%,0%,0%);fill-opacity:1;" d="M 120.128906 161.558594 L 105.492188 181.199219 L 113.101562 185.023438 Z M 120.128906 161.558594 "/>
<path style="fill:none;stroke-width:1.2;stroke-linecap:butt;stroke-linejoin:miter;stroke:rgb(0%,0%,0%);stroke-opacity:1;stroke-miterlimit:10;" d="M 96.351562 157.5 L 120.128906 161.558594 "/>
<path style=" stroke:none;fill-rule:nonzero;fill:rgb(0%,0%,0%);fill-opacity:1;" d="M 131.339844 140.195312 L 117.53125 119.960938 L 111.441406 125.910156 Z M 131.339844 140.195312 "/>
<path style="fill:none;stroke-width:1.2;stroke-linecap:butt;stroke-linejoin:miter;stroke:rgb(0%,0%,0%);stroke-opacity:1;stroke-miterlimit:10;" d="M 114.488281 122.9375 L 92.863281 133.628906 "/>
<path style="fill:none;stroke-width:1.2;stroke-linecap:butt;stroke-linejoin:miter;stroke:rgb(0%,0%,0%);stroke-opacity:1;stroke-miterlimit:10;" d="M 92.863281 133.628906 L 96.351562 157.5 "/>
<path style=" stroke:none;fill-rule:nonzero;fill:rgb(0%,0%,0%);fill-opacity:1;" d="M 96.351562 157.5 L 72.078125 154.21875 L 72.421875 162.726562 Z M 96.351562 157.5 "/>
<path style="fill:none;stroke-width:1.2;stroke-linecap:butt;stroke-linejoin:miter;stroke:rgb(0%,0%,0%);stroke-opacity:1;stroke-miterlimit:10;" d="M 96.351562 157.5 L 94.113281 169.351562 "/>
<path style="fill:none;stroke-width:1.2;stroke-linecap:butt;stroke-linejoin:miter;stroke:rgb(100%,0%,0%);stroke-opacity:1;stroke-miterlimit:10;" d="M 94.113281 169.351562 L 91.878906 181.203125 "/>
<path style="fill:none;stroke-width:1.2;stroke-linecap:butt;stroke-linejoin:miter;stroke:rgb(0%,0%,0%);stroke-opacity:1;stroke-miterlimit:10;" d="M 69.734375 157.15625 L 64.132812 167.835938 "/>
<path style="fill:none;stroke-width:1.2;stroke-linecap:butt;stroke-linejoin:miter;stroke:rgb(100%,0%,0%);stroke-opacity:1;stroke-miterlimit:10;" d="M 64.132812 167.835938 L 58.527344 178.515625 "/>
<path style="fill:none;stroke-width:1.2;stroke-linecap:butt;stroke-linejoin:miter;stroke:rgb(0%,0%,0%);stroke-opacity:1;stroke-miterlimit:10;" d="M 74.761719 159.792969 L 69.15625 170.472656 "/>
<path style="fill:none;stroke-width:1.2;stroke-linecap:butt;stroke-linejoin:miter;stroke:rgb(100%,0%,0%);stroke-opacity:1;stroke-miterlimit:10;" d="M 69.15625 170.472656 L 63.554688 181.152344 "/>
<path style="fill:none;stroke-width:1.2;stroke-linecap:butt;stroke-linejoin:miter;stroke:rgb(0%,0%,0%);stroke-opacity:1;stroke-miterlimit:10;" d="M 72.25 158.472656 L 59.351562 138.085938 "/>
<path style=" stroke:none;fill-rule:nonzero;fill:rgb(100%,100%,100%);fill-opacity:1;" d="M 53.039062 174.335938 L 61.039062 174.335938 L 61.039062 185.335938 L 53.039062 185.335938 Z M 53.039062 174.335938 "/>
<g style="fill:rgb(100%,0%,0%);fill-opacity:1;">
  <use xlink:href="#glyph0-1" x="53.039062" y="182.999023"/>
</g>
<path style="fill:none;stroke-width:1.2;stroke-linecap:butt;stroke-linejoin:miter;stroke:rgb(0%,0%,0%);stroke-opacity:1;stroke-miterlimit:10;" d="M 59.351562 138.085938 L 47.300781 138.574219 "/>
<path style="fill:none;stroke-width:1.2;stroke-linecap:butt;stroke-linejoin:miter;stroke:rgb(100%,0%,0%);stroke-opacity:1;stroke-miterlimit:10;" d="M 47.300781 138.574219 L 35.25 139.058594 "/>
<path style=" stroke:none;fill-rule:nonzero;fill:rgb(100%,100%,100%);fill-opacity:1;" d="M 20.25 133.558594 L 35.25 133.558594 L 35.25 144.558594 L 20.25 144.558594 Z M 20.25 133.558594 "/>
<g style="fill:rgb(100%,0%,0%);fill-opacity:1;">
  <use xlink:href="#glyph0-2" x="20.25" y="142.22168"/>
  <use xlink:href="#glyph0-1" x="27.264648" y="142.22168"/>
</g>
<path style=" stroke:none;fill-rule:nonzero;fill:rgb(100%,100%,100%);fill-opacity:1;" d="M 84.878906 175.703125 L 99.878906 175.703125 L 99.878906 186.703125 L 84.878906 186.703125 Z M 84.878906 175.703125 "/>
<g style="fill:rgb(100%,0%,0%);fill-opacity:1;">
  <use xlink:href="#glyph0-2" x="84.878906" y="184.366211"/>
  <use xlink:href="#glyph0-1" x="91.893555" y="184.366211"/>
</g>
</g>
</svg>

<svg xmlns="http://www.w3.org/2000/svg" xmlns:xlink="http://www.w3.org/1999/xlink" width="300pt" height="300pt" viewBox="0 0 300 300"><defs><symbol overflow="visible"><path d="M.453 1.594v-7.938h4.5v7.938zm.5-.5h3.5v-6.938h-3.5zm0 0"/></symbol><symbol overflow="visible" id="a"><path d="M3.547-5.953c-.65 0-1.164.242-1.547.72-.375.48-.563 1.13-.563 1.952 0 .835.188 1.49.563 1.967.383.48.898.72 1.547.72.644 0 1.156-.24 1.53-.72.376-.476.564-1.132.564-1.968 0-.822-.187-1.474-.562-1.954-.375-.477-.887-.72-1.53-.72zm0-.734c.914 0 1.648.312 2.203.937.55.617.828 1.438.828 2.47 0 1.042-.277 1.87-.828 2.483-.555.617-1.29.922-2.203.922-.93 0-1.668-.305-2.22-.922C.774-1.41.5-2.237.5-3.28c0-1.033.273-1.853.828-2.47.55-.625 1.29-.938 2.22-.938zm0 0"/></symbol><symbol overflow="visible" id="b"><path d="M.89-6.563h.876v2.688H5v-2.688h.89V0H5v-3.125H1.766V0H.89zm0 0"/></symbol></defs><g><path fill="#fff" d="M0 0h300v300H0z"/><path d="M192.44 158.637l-14.98 19.383 7.54 3.957zm0 0"/><path d="M192.44 158.637l12.896 20.386M203.648 137.277l-11.207 21.36M168.336 159.61l24.105-.973M205.336 179.023l24.1-.972M229.438 178.05l11.21-21.363M240.762 159.523l12.05-.484" stroke-width="1.2" stroke="#000" stroke-miterlimit="10" fill="none"/><path d="M252.813 159.04l12.05-.49" stroke-width="1.2" stroke="#f00" stroke-miterlimit="10" fill="none"/><path d="M240.53 153.852l12.052-.485" stroke-width="1.2" stroke="#000" stroke-miterlimit="10" fill="none"/><path d="M252.582 153.367l12.055-.488" stroke-width="1.2" stroke="#f00" stroke-miterlimit="10" fill="none"/><path d="M240.648 156.688L227.75 136.3" stroke-width="1.2" stroke="#000" stroke-miterlimit="10" fill="none"/><path d="M260.75 150.215h8v11h-8zm0 0" fill="#fff"/><use xlink:href="#a" x="260.75" y="158.878" fill="#f00"/><path d="M227.75 136.3l-24.102.977M225.57 142.07l-19.28.778M203.648 137.277l-12.894-20.39M190.754 116.887l-24.106.976" stroke-width="1.2" stroke="#000" stroke-miterlimit="10" fill="none"/><path d="M155.44 139.223m1.837-2.375l-.925-.485m2.757-1.886l-1.844-.97m3.68-1.405l-2.77-1.454m4.605-.92l-3.694-1.94m5.527-.433l-4.617-2.425m6.453.05l-5.544-2.906m7.375.53l-6.46-3.39m8.297 1.016l-7.387-3.875m7.688 3.485l-7.54-3.957" stroke="#000" stroke-miterlimit="10" fill="none"/><path d="M155.44 139.223l12.896 20.386M131.34 140.195l24.1-.972" stroke-width="1.2" stroke="#000" stroke-miterlimit="10" fill="none"/><path d="M168.336 159.61L153.36 178.99l7.538 3.957zm0 0"/><path d="M157.13 180.973l-24.103.972M133.027 181.945L120.13 161.56M120.13 161.56l11.21-21.365" stroke-width="1.2" stroke="#000" stroke-miterlimit="10" fill="none"/><path d="M120.13 161.56L105.49 181.2l7.61 3.823zm0 0"/><path d="M96.352 157.5l23.777 4.06" stroke-width="1.2" stroke="#000" stroke-miterlimit="10" fill="none"/><path d="M131.34 140.195l-13.81-20.234-6.09 5.95zm0 0"/><path d="M114.488 122.938l-21.625 10.69M92.863 133.63l3.49 23.87" stroke-width="1.2" stroke="#000" stroke-miterlimit="10" fill="none"/><path d="M96.352 157.5l-24.274-3.28.344 8.507zm0 0"/><path d="M96.352 157.5l-2.24 11.852" stroke-width="1.2" stroke="#000" stroke-miterlimit="10" fill="none"/><path d="M94.113 169.352l-2.234 11.85" stroke-width="1.2" stroke="#f00" stroke-miterlimit="10" fill="none"/><path d="M69.734 157.156l-5.6 10.68" stroke-width="1.2" stroke="#000" stroke-miterlimit="10" fill="none"/><path d="M64.133 167.836l-5.606 10.68" stroke-width="1.2" stroke="#f00" stroke-miterlimit="10" fill="none"/><path d="M74.762 159.793l-5.606 10.68" stroke-width="1.2" stroke="#000" stroke-miterlimit="10" fill="none"/><path d="M69.156 170.473l-5.6 10.68" stroke-width="1.2" stroke="#f00" stroke-miterlimit="10" fill="none"/><path d="M72.25 158.473l-12.898-20.387" stroke-width="1.2" stroke="#000" stroke-miterlimit="10" fill="none"/><path d="M53.04 174.336h8v11h-8zm0 0" fill="#fff"/><use xlink:href="#a" x="53.039" y="182.999" fill="#f00"/><path d="M59.352 138.086l-12.05.488" stroke-width="1.2" stroke="#000" stroke-miterlimit="10" fill="none"/><path d="M47.3 138.574l-12.05.485" stroke-width="1.2" stroke="#f00" stroke-miterlimit="10" fill="none"/><path d="M20.25 133.56h15v11h-15zm0 0" fill="#fff"/><g fill="#f00"><use xlink:href="#b" x="20.25" y="142.222"/><use xlink:href="#a" x="27.265" y="142.222"/></g><path d="M84.88 175.703h15v11h-15zm0 0" fill="#fff"/><g fill="#f00"><use xlink:href="#b" x="84.879" y="184.366"/><use xlink:href="#a" x="91.894" y="184.366"/></g></g></svg>
